mimes/64/extension.svg

<?xml version="1.0" encoding="UTF-8" standalone="no"?>
<svg
   xmlns:dc="http://purl.org/dc/elements/1.1/"
   xmlns:cc="http://creativecommons.org/ns#"
   xmlns:rdf="http://www.w3.org/1999/02/22-rdf-syntax-ns#"
   xmlns:svg="http://www.w3.org/2000/svg"
   xmlns="http://www.w3.org/2000/svg"
   xmlns:xlink="http://www.w3.org/1999/xlink"
   version="1.0"
   width="64"
   height="64"
   id="svg3783">
  <metadata
     id="metadata43">
    <rdf:RDF>
      <cc:Work
         rdf:about="">
        <dc:format>image/svg+xml</dc:format>
        <dc:type
           rdf:resource="http://purl.org/dc/dcmitype/StillImage" />
        <dc:title />
      </cc:Work>
    </rdf:RDF>
  </metadata>
  <defs
     id="defs3785">
    <linearGradient
       id="linearGradient4281">
      <stop
         offset="0"
         style="stop-color:#ffffff;stop-opacity:1"
         id="stop4283" />
      <stop
         id="stop4291"
         style="stop-color:#ffffff;stop-opacity:0"
         offset="0.1750547" />
      <stop
         offset="0.24507658"
         style="stop-color:#ffffff;stop-opacity:1"
         id="stop4285" />
      <stop
         id="stop4293"
         style="stop-color:#ffffff;stop-opacity:0"
         offset="0.3501094" />
      <stop
         offset="0.4201313"
         style="stop-color:#ffffff;stop-opacity:0.20261438"
         id="stop4299" />
      <stop
         offset="0.45514223"
         style="stop-color:#ffffff;stop-opacity:1"
         id="stop4295" />
      <stop
         id="stop4297"
         style="stop-color:#ffffff;stop-opacity:0"
         offset="0.56912428" />
      <stop
         offset="0.70683217"
         style="stop-color:#ffffff;stop-opacity:0.26143792"
         id="stop4307" />
      <stop
         offset="0.75273526"
         style="stop-color:#ffffff;stop-opacity:1"
         id="stop4303" />
      <stop
         id="stop4305"
         style="stop-color:#ffffff;stop-opacity:0.07058824;"
         offset="0.84026259" />
      <stop
         offset="1"
         style="stop-color:#ffffff;stop-opacity:0.15686275"
         id="stop4287" />
      <stop
         offset="1"
         style="stop-color:#ffffff;stop-opacity:0.39215687"
         id="stop4289" />
    </linearGradient>
    <linearGradient
       id="linearGradient3702">
      <stop
         id="stop3704"
         style="stop-color:#000000;stop-opacity:0"
         offset="0" />
      <stop
         id="stop3710"
         style="stop-color:#000000;stop-opacity:1"
         offset="0.5" />
      <stop
         id="stop3706"
         style="stop-color:#000000;stop-opacity:0"
         offset="1" />
    </linearGradient>
    <linearGradient
       id="linearGradient3688">
      <stop
         id="stop3690"
         style="stop-color:#000000;stop-opacity:1"
         offset="0" />
      <stop
         id="stop3692"
         style="stop-color:#000000;stop-opacity:0"
         offset="1" />
    </linearGradient>
    <radialGradient
       xlink:href="#linearGradient3688"
       id="radialGradient2470"
       gradientUnits="userSpaceOnUse"
       gradientTransform="matrix(2.003784,0,0,1.4,27.98813,-17.4)"
       cx="4.9929786"
       cy="43.5"
       fx="4.9929786"
       fy="43.5"
       r="2.5" />
    <radialGradient
       xlink:href="#linearGradient3688"
       id="radialGradient2472"
       gradientUnits="userSpaceOnUse"
       gradientTransform="matrix(2.003784,0,0,1.4,-20.01187,-104.4)"
       cx="4.9929786"
       cy="43.5"
       fx="4.9929786"
       fy="43.5"
       r="2.5" />
    <linearGradient
       xlink:href="#linearGradient3702"
       id="linearGradient2474"
       gradientUnits="userSpaceOnUse"
       x1="25.058096"
       y1="47.027729"
       x2="25.058096"
       y2="39.999443" />
    <radialGradient
       xlink:href="#linearGradient3688"
       id="radialGradient2476"
       gradientUnits="userSpaceOnUse"
       gradientTransform="matrix(2.003784,0,0,1.4,27.98813,-17.4)"
       cx="4.9929786"
       cy="43.5"
       fx="4.9929786"
       fy="43.5"
       r="2.5" />
    <radialGradient
       xlink:href="#linearGradient3688"
       id="radialGradient2478"
       gradientUnits="userSpaceOnUse"
       gradientTransform="matrix(2.003784,0,0,1.4,-20.01187,-104.4)"
       cx="4.9929786"
       cy="43.5"
       fx="4.9929786"
       fy="43.5"
       r="2.5" />
    <linearGradient
       xlink:href="#linearGradient3702"
       id="linearGradient2480"
       gradientUnits="userSpaceOnUse"
       x1="25.058096"
       y1="47.027729"
       x2="25.058096"
       y2="39.999443" />
    <linearGradient
       id="linearGradient3242-7-3-8-0-4-58-06">
      <stop
         offset="0"
         style="stop-color:#cdf87e;stop-opacity:1"
         id="stop3244-5-8-5-6-4-3-8" />
      <stop
         offset="0.26238"
         style="stop-color:#a2e34f;stop-opacity:1"
         id="stop3246-9-5-1-5-3-0-7" />
      <stop
         offset="0.66093999"
         style="stop-color:#68b723;stop-opacity:1"
         id="stop3248-7-2-0-7-5-35-9" />
      <stop
         offset="1"
         style="stop-color:#1d7e0d;stop-opacity:1"
         id="stop3250-8-2-8-5-6-40-4" />
    </linearGradient>
    <radialGradient
       gradientTransform="matrix(-3.3333333,1.0000002e-8,0,-3.1666667,43.333333,37.5)"
       gradientUnits="userSpaceOnUse"
       r="30"
       fy="9"
       fx="10"
       cy="9"
       cx="10"
       id="radialGradient4210"
       xlink:href="#linearGradient3242-7-3-8-0-4-58-06" />
    <linearGradient
       y2="42.175503"
       x2="23.99999"
       y1="5.8245578"
       x1="23.99999"
       gradientTransform="matrix(1.2162162,0,0,1.5405376,63.310819,-73.97295)"
       gradientUnits="userSpaceOnUse"
       id="linearGradient4324"
       xlink:href="#linearGradient4338" />
    <linearGradient
       id="linearGradient4338">
      <stop
         id="stop4340"
         style="stop-color:#ffffff;stop-opacity:1"
         offset="0" />
      <stop
         id="stop4342"
         style="stop-color:#ffffff;stop-opacity:0.23529412"
         offset="0" />
      <stop
         id="stop4344"
         style="stop-color:#ffffff;stop-opacity:0.15686275"
         offset="1" />
      <stop
         id="stop4346"
         style="stop-color:#ffffff;stop-opacity:0.39215687"
         offset="1" />
    </linearGradient>
    <linearGradient
       gradientUnits="userSpaceOnUse"
       y2="61.125"
       x2="25"
       y1="4"
       x1="25"
       id="linearGradient4269"
       xlink:href="#linearGradient4281" />
  </defs>
  <g
     style="opacity:0.3"
     id="g3761"
     transform="matrix(0.55294861,0,0,0.5714286,24.735257,36.642856)">
    <rect
       style="fill:url(#radialGradient2470);fill-opacity:1;stroke:none"
       id="rect3763"
       y="40"
       x="38"
       height="7"
       width="5" />
    <rect
       style="fill:url(#radialGradient2472);fill-opacity:1;stroke:none"
       id="rect3765"
       transform="scale(-1,-1)"
       y="-47"
       x="-10"
       height="7"
       width="5" />
    <rect
       style="fill:url(#linearGradient2474);fill-opacity:1;stroke:none"
       id="rect3767"
       y="40"
       x="10"
       height="7.0000005"
       width="28" />
  </g>
  <g
     style="opacity:0.3"
     id="g3550"
     transform="matrix(0.55992067,0,0,0.5714286,-1.2996033,36.642856)">
    <rect
       style="fill:url(#radialGradient2476);fill-opacity:1;stroke:none"
       id="rect3552"
       y="40"
       x="38"
       height="7"
       width="5" />
    <rect
       style="fill:url(#radialGradient2478);fill-opacity:1;stroke:none"
       id="rect3554"
       transform="scale(-1,-1)"
       y="-47"
       x="-10"
       height="7"
       width="5" />
    <rect
       style="fill:url(#linearGradient2480);fill-opacity:1;stroke:none"
       id="rect3556"
       y="40"
       x="10"
       height="7.0000005"
       width="28" />
  </g>
  <path
     id="rect4168"
     d="m 25,3.5 c -4.142136,0 -7.5,3.3578644 -7.5,7.5 0.0027,2.68565 1.441216,5.164869 3.771484,6.5 L 4.5,17.5 c -1.108,0 -2,0.892 -2,2 l 0,14.771484 C 3.8351314,31.941216 6.3143495,30.502703 9,30.5 c 4.142136,0 7.5,3.357864 7.5,7.5 0,4.142136 -3.357864,7.5 -7.5,7.5 C 6.3131358,45.4961 3.8336347,44.055181 2.5,41.722656 L 2.5,59.5 c 0,1.108 0.892,2 2,2 l 16.771484,0 C 18.941216,60.164869 17.502703,57.68565 17.5,55 c 0,-4.142136 3.357864,-7.5 7.5,-7.5 4.142136,0 7.5,3.357864 7.5,7.5 -0.0039,2.686864 -1.444819,5.166365 -3.777344,6.5 L 44.5,61.5 c 1.108,0 2,-0.892 2,-2 l 0,-17.777344 c 1.333635,2.332525 3.813136,3.773437 6.5,3.777344 4.142136,0 7.5,-3.357864 7.5,-7.5 0,-4.142136 -3.357864,-7.5 -7.5,-7.5 -2.68565,0.0027 -5.164869,1.441216 -6.5,3.771484 L 46.5,19.5 c 0,-1.108 -0.892,-2 -2,-2 l -15.777344,0 C 31.055181,16.166365 32.496093,13.686864 32.5,11 32.5,6.8578644 29.142136,3.5 25,3.5 Z"
     style="opacity:1;fill:url(#radialGradient4210);fill-opacity:1;stroke:#0f5a00;stroke-width:1;stroke-linejoin:round;stroke-miterlimit:4;stroke-dasharray:none;stroke-opacity:0.49803922" />
  <path
     id="rect4214"
     d="m 25,4.5 c -3.589851,0 -6.5,2.9101491 -6.5,6.5 0.0027,2.622397 1.580949,4.986316 4.001953,5.994141 -1.3e-5,0.0021 -0.002,0.0037 -0.002,0.0059 l 0,1.5 -18,0 c -0.554,0 -1,0.446 -1,1 l 0,12.03125 C 5.0344012,30.223289 6.9837812,29.503347 9,29.5 c 4.69442,0 8.5,3.80558 8.5,8.5 0,4.69442 -3.80558,8.5 -8.5,8.5 -2.0147381,-7.6e-5 -3.9639473,-0.715801 -5.5,-2.019531 L 3.5,59.5 c 0,0.554 0.446,1 1,1 l 14.03125,0 C 17.223289,58.965599 16.503347,57.016219 16.5,55 c 0,-4.69442 3.80558,-8.5 8.5,-8.5 4.69442,0 8.5,3.80558 8.5,8.5 -7.6e-5,2.014738 -0.715801,3.963947 -2.019531,5.5 L 44.5,60.5 c 0.554,0 1,-0.446 1,-1 l 0,-19 1.5,0 0.002,0 c 1.008979,2.421549 3.374702,3.999212 5.998047,4 3.589851,0 6.5,-2.910149 6.5,-6.5 0,-3.589851 -2.910149,-6.5 -6.5,-6.5 -2.622397,0.0027 -4.986316,1.580949 -5.994141,4.001953 C 47.003732,35.50194 47.002131,35.5 47,35.5 l -1.5,0 0,-16 c 0,-0.554 -0.446,-1 -1,-1 l -17,0 0,-1.5 0,-0.002 C 29.921549,15.989068 31.499212,13.623345 31.5,11 31.5,7.6823715 29.014476,4.9452681 25.803969,4.5492306 25.540536,4.5167344 25.272222,4.5 25,4.5 Z"
     style="opacity:1;fill:none;fill-opacity:1;stroke:url(#linearGradient4269);stroke-width:1;stroke-linejoin:round;stroke-miterlimit:4;stroke-dasharray:none;stroke-opacity:0.49803922" />
  <path
     d="m 115,-8.4999801 -44.999999,0 0,-57.0000399 44.999999,0 z"
     id="rect6741-1-8"
     style="fill:none;stroke:url(#linearGradient4324);stroke-width:1;stroke-linecap:round;stroke-linejoin:miter;stroke-miterlimit:4;stroke-dasharray:none;stroke-dashoffset:0;stroke-opacity:1" />
</svg>

<?xml version="1.0" encoding="UTF-8" standalone="no"?>
<svg
   xmlns:dc="http://purl.org/dc/elements/1.1/"
   xmlns:cc="http://creativecommons.org/ns#"
   xmlns:rdf="http://www.w3.org/1999/02/22-rdf-syntax-ns#"
   xmlns:svg="http://www.w3.org/2000/svg"
   xmlns="http://www.w3.org/2000/svg"
   xmlns:xlink="http://www.w3.org/1999/xlink"
   version="1.0"
   width="64"
   height="64"
   id="svg3783">
  <metadata
     id="metadata43">
    <rdf:RDF>
      <cc:Work
         rdf:about="">
        <dc:format>image/svg+xml</dc:format>
        <dc:type
           rdf:resource="http://purl.org/dc/dcmitype/StillImage" />
        <dc:title />
      </cc:Work>
    </rdf:RDF>
  </metadata>
  <defs
     id="defs3785">
    <linearGradient
       id="linearGradient3702">
      <stop
         id="stop3704"
         style="stop-color:#000000;stop-opacity:0"
         offset="0" />
      <stop
         id="stop3710"
         style="stop-color:#000000;stop-opacity:1"
         offset="0.5" />
      <stop
         id="stop3706"
         style="stop-color:#000000;stop-opacity:0"
         offset="1" />
    </linearGradient>
    <linearGradient
       id="linearGradient3688">
      <stop
         id="stop3690"
         style="stop-color:#000000;stop-opacity:1"
         offset="0" />
      <stop
         id="stop3692"
         style="stop-color:#000000;stop-opacity:0"
         offset="1" />
    </linearGradient>
    <linearGradient
       id="linearGradient4222">
      <stop
         id="stop4224"
         style="stop-color:#ffffff;stop-opacity:1"
         offset="0" />
      <stop
         id="stop4226"
         style="stop-color:#ffffff;stop-opacity:0"
         offset="1" />
    </linearGradient>
    <radialGradient
       xlink:href="#linearGradient3688"
       id="radialGradient2470"
       gradientUnits="userSpaceOnUse"
       gradientTransform="matrix(2.003784,0,0,1.4,27.98813,-17.4)"
       cx="4.9929786"
       cy="43.5"
       fx="4.9929786"
       fy="43.5"
       r="2.5" />
    <radialGradient
       xlink:href="#linearGradient3688"
       id="radialGradient2472"
       gradientUnits="userSpaceOnUse"
       gradientTransform="matrix(2.003784,0,0,1.4,-20.01187,-104.4)"
       cx="4.9929786"
       cy="43.5"
       fx="4.9929786"
       fy="43.5"
       r="2.5" />
    <linearGradient
       xlink:href="#linearGradient3702"
       id="linearGradient2474"
       gradientUnits="userSpaceOnUse"
       x1="25.058096"
       y1="47.027729"
       x2="25.058096"
       y2="39.999443" />
    <radialGradient
       xlink:href="#linearGradient3688"
       id="radialGradient2476"
       gradientUnits="userSpaceOnUse"
       gradientTransform="matrix(2.003784,0,0,1.4,27.98813,-17.4)"
       cx="4.9929786"
       cy="43.5"
       fx="4.9929786"
       fy="43.5"
       r="2.5" />
    <radialGradient
       xlink:href="#linearGradient3688"
       id="radialGradient2478"
       gradientUnits="userSpaceOnUse"
       gradientTransform="matrix(2.003784,0,0,1.4,-20.01187,-104.4)"
       cx="4.9929786"
       cy="43.5"
       fx="4.9929786"
       fy="43.5"
       r="2.5" />
    <linearGradient
       xlink:href="#linearGradient3702"
       id="linearGradient2480"
       gradientUnits="userSpaceOnUse"
       x1="25.058096"
       y1="47.027729"
       x2="25.058096"
       y2="39.999443" />
    <linearGradient
       id="linearGradient3242-7-3-8-0-4-58-06">
      <stop
         offset="0"
         style="stop-color:#cdf87e;stop-opacity:1"
         id="stop3244-5-8-5-6-4-3-8" />
      <stop
         offset="0.26238"
         style="stop-color:#a2e34f;stop-opacity:1"
         id="stop3246-9-5-1-5-3-0-7" />
      <stop
         offset="0.66093999"
         style="stop-color:#68b723;stop-opacity:1"
         id="stop3248-7-2-0-7-5-35-9" />
      <stop
         offset="1"
         style="stop-color:#1d7e0d;stop-opacity:1"
         id="stop3250-8-2-8-5-6-40-4" />
    </linearGradient>
    <radialGradient
       gradientTransform="matrix(-3.3333333,1.0000002e-8,0,-3.1666667,43.333333,37.5)"
       gradientUnits="userSpaceOnUse"
       r="30"
       fy="9"
       fx="10"
       cy="9"
       cx="10"
       id="radialGradient4210"
       xlink:href="#linearGradient3242-7-3-8-0-4-58-06" />
    <linearGradient
       y2="42.175503"
       x2="23.99999"
       y1="5.8245578"
       x1="23.99999"
       gradientTransform="matrix(1.2162162,0,0,1.5405376,63.310819,-73.97295)"
       gradientUnits="userSpaceOnUse"
       id="linearGradient4324"
       xlink:href="#linearGradient4338" />
    <linearGradient
       id="linearGradient4338">
      <stop
         id="stop4340"
         style="stop-color:#ffffff;stop-opacity:1"
         offset="0" />
      <stop
         id="stop4342"
         style="stop-color:#ffffff;stop-opacity:0.23529412"
         offset="0" />
      <stop
         id="stop4344"
         style="stop-color:#ffffff;stop-opacity:0.15686275"
         offset="1" />
      <stop
         id="stop4346"
         style="stop-color:#ffffff;stop-opacity:0.39215687"
         offset="1" />
    </linearGradient>
    <linearGradient
       gradientUnits="userSpaceOnUse"
       y2="61"
       x2="26"
       y1="3.773787"
       x1="25.892582"
       id="linearGradient4269"
       xlink:href="#linearGradient4222" />
  </defs>
  <g
     style="opacity:0.3"
     id="g3761"
     transform="matrix(0.55294861,0,0,0.5714286,24.735257,36.642856)">
    <rect
       style="fill:url(#radialGradient2470);fill-opacity:1;stroke:none"
       id="rect3763"
       y="40"
       x="38"
       height="7"
       width="5" />
    <rect
       style="fill:url(#radialGradient2472);fill-opacity:1;stroke:none"
       id="rect3765"
       transform="scale(-1,-1)"
       y="-47"
       x="-10"
       height="7"
       width="5" />
    <rect
       style="fill:url(#linearGradient2474);fill-opacity:1;stroke:none"
       id="rect3767"
       y="40"
       x="10"
       height="7.0000005"
       width="28" />
  </g>
  <g
     style="opacity:0.3"
     id="g3550"
     transform="matrix(0.55992067,0,0,0.5714286,-1.2996033,36.642856)">
    <rect
       style="fill:url(#radialGradient2476);fill-opacity:1;stroke:none"
       id="rect3552"
       y="40"
       x="38"
       height="7"
       width="5" />
    <rect
       style="fill:url(#radialGradient2478);fill-opacity:1;stroke:none"
       id="rect3554"
       transform="scale(-1,-1)"
       y="-47"
       x="-10"
       height="7"
       width="5" />
    <rect
       style="fill:url(#linearGradient2480);fill-opacity:1;stroke:none"
       id="rect3556"
       y="40"
       x="10"
       height="7.0000005"
       width="28" />
  </g>
  <path
     id="rect4168"
     d="m 25,3.5 c -4.142136,0 -7.5,3.3578644 -7.5,7.5 0.0027,2.68565 1.441216,5.164869 3.771484,6.5 L 4.5,17.5 c -1.108,0 -2,0.892 -2,2 l 0,14.771484 C 3.8351314,31.941216 6.3143495,30.502703 9,30.5 c 4.142136,0 7.5,3.357864 7.5,7.5 0,4.142136 -3.357864,7.5 -7.5,7.5 C 6.3131358,45.4961 3.8336347,44.055181 2.5,41.722656 L 2.5,59.5 c 0,1.108 0.892,2 2,2 l 16.771484,0 C 18.941216,60.164869 17.502703,57.68565 17.5,55 c 0,-4.142136 3.357864,-7.5 7.5,-7.5 4.142136,0 7.5,3.357864 7.5,7.5 -0.0039,2.686864 -1.444819,5.166365 -3.777344,6.5 L 44.5,61.5 c 1.108,0 2,-0.892 2,-2 l 0,-17.777344 c 1.333635,2.332525 3.813136,3.773437 6.5,3.777344 4.142136,0 7.5,-3.357864 7.5,-7.5 0,-4.142136 -3.357864,-7.5 -7.5,-7.5 -2.68565,0.0027 -5.164869,1.441216 -6.5,3.771484 L 46.5,19.5 c 0,-1.108 -0.892,-2 -2,-2 l -15.777344,0 C 31.055181,16.166365 32.496093,13.686864 32.5,11 32.5,6.8578644 29.142136,3.5 25,3.5 Z"
     style="opacity:1;fill:url(#radialGradient4210);fill-opacity:1;stroke:#0f5a00;stroke-width:1;stroke-linejoin:round;stroke-miterlimit:4;stroke-dasharray:none;stroke-opacity:0.49803922" />
  <path
     id="rect4214"
     d="M 25 4.5 A 6.5 6.5 0 0 0 18.5 11 A 6.5 6.5 0 0 0 22.501953 16.994141 C 22.50194 16.996268 22.5 16.997869 22.5 17 L 22.5 18.5 L 4.5 18.5 C 3.946 18.5 3.5 18.946 3.5 19.5 L 3.5 31.53125 A 8.5 8.5 0 0 1 9 29.5 A 8.5 8.5 0 0 1 17.5 38 A 8.5 8.5 0 0 1 9 46.5 A 8.5 8.5 0 0 1 3.5 44.480469 L 3.5 59.5 C 3.5 60.054 3.946 60.5 4.5 60.5 L 18.53125 60.5 A 8.5 8.5 0 0 1 16.5 55 A 8.5 8.5 0 0 1 25 46.5 A 8.5 8.5 0 0 1 33.5 55 A 8.5 8.5 0 0 1 31.480469 60.5 L 44.5 60.5 C 45.054 60.5 45.5 60.054 45.5 59.5 L 45.5 40.5 L 47 40.5 L 47.001953 40.5 A 6.5 6.5 0 0 0 53 44.5 A 6.5 6.5 0 0 0 59.5 38 A 6.5 6.5 0 0 0 53 31.5 A 6.5 6.5 0 0 0 47.005859 35.501953 C 47.003732 35.50194 47.002131 35.5 47 35.5 L 45.5 35.5 L 45.5 19.5 C 45.5 18.946 45.054 18.5 44.5 18.5 L 27.5 18.5 L 27.5 17 L 27.5 16.998047 A 6.5 6.5 0 0 0 31.5 11 A 6.5 6.5 0 0 0 25 4.5 z "
     style="opacity:1;fill:none;fill-opacity:1;stroke:url(#linearGradient4269);stroke-width:1;stroke-linejoin:round;stroke-miterlimit:4;stroke-dasharray:none;stroke-opacity:0.49803922" />
  <path
     d="m 115,-8.4999801 -44.999999,0 0,-57.0000399 44.999999,0 z"
     id="rect6741-1-8"
     style="fill:none;stroke:url(#linearGradient4324);stroke-width:1;stroke-linecap:round;stroke-linejoin:miter;stroke-miterlimit:4;stroke-dasharray:none;stroke-dashoffset:0;stroke-opacity:1" />
</svg>
